X:352
T:Miss Delicia Chisholm 
C:Joe Buchanan's Scottish Tome - Page 015.0
I:015 0
R:March
Z:Carl Allison
L:1/8
M:2/4
K:D
f | A>B AG | d>e f2 | fA df | a/>f/e/>d/ ef |
| A>B AG | d3/e/ f2 | fA f/<a/e/>f/ | d2 d :|
f/>g/ | a>g fd | Ad f2 | fA df | a/>f/e/>d/ ef/>g/ |
| a>g fd | Ad fA f/<a/e/>f/ | d2 df/>g/  |
| a>g fd | Ad f2 | fA df | a/>f/e/>d/ ef |]
| A>B AG | de f2 | fA f/<a/e/>f/ | d2 d |
f | A>B dA | BA f2 | fA df | a/>f/e/>d/ ef :|
| A>B dA | BA f2 | fA f/>a/e/>f/ | d2 d |
f/>g/ | a2 a>g | fd a>g | fA df | a/>f/e/>d/ ef |
| a2 a>g | fd a>g | fA f/>a/e/>f/ | d2 df/>g/ |
| a2 a>g | fd a>g | fA df | a/>f/e/>d/ ef |
| A>B dA | BA f2 | fA f/>a/e/>f/ | d2 d |]

